resources/icons/20px/bring-forward.svg

<svg width="20" height="20" viewBox="0 0 20 20" fill="none" xmlns="http://www.w3.org/2000/svg">
<path d="M9.29289 0.292893C9.68342 -0.0976311 10.3166 -0.0976311 10.7071 0.292893L14.7071 4.29289C15.0976 4.68342 15.0976 5.31658 14.7071 5.70711C14.3166 6.09763 13.6834 6.09763 13.2929 5.70711L11 3.41421V9H19C19.5523 9 20 9.44771 20 10C20 10.5523 19.5523 11 19 11H11V14H19C19.5523 14 20 14.4477 20 15V18C20 18.5523 19.5523 19 19 19H1C0.447716 19 0 18.5523 0 18V15C0 14.4477 0.447715 14 1 14H9V11H1C0.447716 11 0 10.5523 0 10C0 9.44771 0.447715 9 1 9H9V3.41421L6.70711 5.70711C6.31658 6.09763 5.68342 6.09763 5.29289 5.70711C4.90237 5.31658 4.90237 4.68342 5.29289 4.29289L9.29289 0.292893Z" fill="#5F6B7C"/>
</svg>

<svg xmlns="http://www.w3.org/2000/svg" viewBox="0 0 20 20">
  <path d="M9.293.293a1 1 0 0 1 1.414 0l4 4a1 1 0 0 1-1.414 1.414L11 3.414V9h8a1 1 0 1 1 0 2h-8v3h8a1 1 0 0 1 1 1v3a1 1 0 0 1-1 1H1a1 1 0 0 1-1-1v-3a1 1 0 0 1 1-1h8v-3H1a1 1 0 1 1 0-2h8V3.414L6.707 5.707a1 1 0 0 1-1.414-1.414z"/>
</svg>
